assets/oreilly.svg

<?xml version="1.0" encoding="UTF-8" standalone="no"?>
<svg
   width="300"
   height="90"
   viewBox="0 0 300 90"
   version="1.1"
   id="svg8234"
   sodipodi:docname="oreilly.svg"
   inkscape:version="1.1.1 (3bf5ae0d25, 2021-09-20)"
   xmlns:inkscape="http://www.inkscape.org/namespaces/inkscape"
   xmlns:sodipodi="http://sodipodi.sourceforge.net/DTD/sodipodi-0.dtd"
   xmlns="http://www.w3.org/2000/svg"
   xmlns:svg="http://www.w3.org/2000/svg"
   xmlns:rdf="http://www.w3.org/1999/02/22-rdf-syntax-ns#"
   xmlns:cc="http://creativecommons.org/ns#"
   xmlns:dc="http://purl.org/dc/elements/1.1/">
  <sodipodi:namedview
     id="namedview8236"
     pagecolor="#ffffff"
     bordercolor="#666666"
     borderopacity="1.0"
     inkscape:pageshadow="2"
     inkscape:pageopacity="0.0"
     inkscape:pagecheckerboard="0"
     showgrid="false"
     inkscape:zoom="2.2465244"
     inkscape:cx="188.29086"
     inkscape:cy="-9.125207"
     inkscape:window-width="1866"
     inkscape:window-height="1016"
     inkscape:window-x="54"
     inkscape:window-y="27"
     inkscape:window-maximized="1"
     inkscape:current-layer="svg8234" />
  <!-- Generator: Sketch 42 (36781) - http://www.bohemiancoding.com/sketch -->
  <title
     id="title8215">ORM_logo_box75(lg)_cmyk</title>
  <desc
     id="desc8217">Created with Sketch.</desc>
  <defs
     id="defs8219" />
  <g
     id="Page-1"
     stroke="none"
     stroke-width="1"
     fill="none"
     fill-rule="evenodd"
     transform="matrix(1.535238,0,0,1.535238,0.33885881,3.5946311)">
    <g
       id="ORM_logo_box75(lg)_cmyk">
      <polygon
         id="Fill-1"
         fill="#b1b1b1"
         points="194.908,53.94 194.908,0 0.06,0 0.06,53.94 " />
      <polyline
         id="Fill-3"
         fill="#ffffff"
         points="98.362 17.656 98.362 13.042 79.116 13.042 79.116 40.727 98.362 40.727 98.362 36.111 83.729 36.111 83.729 29.191 97.657 29.191 97.657 24.577 83.729 24.577 83.729 17.656 98.362 17.656" />
      <polyline
         id="Fill-4"
         fill="#ffffff"
         points="112.644 40.727 112.644 13.044 117.258 13.044 117.258 36.111 130.568 36.111 130.568 40.727 112.644 40.727" />
      <polyline
         id="Fill-5"
         fill="#ffffff"
         points="134.329 40.727 134.329 13.044 138.944 13.044 138.944 36.111 152.255 36.111 152.255 40.727 134.329 40.727" />
      <polygon
         id="Fill-6"
         fill="#ffffff"
         points="107.818,40.728 107.818,13.044 103.206,13.044 103.206,40.728 " />
      <path
         d="m 14.019,27.012 c 0.002,-7.965 6.455,-14.417 14.42,-14.419 7.964,0.002 14.416,6.454 14.417,14.419 -0.001,7.964 -6.453,14.417 -14.417,14.419 -7.965,-0.002 -14.418,-6.455 -14.42,-14.419 m 7.486,-6.936 c -1.777,1.784 -2.87,4.221 -2.872,6.936 0.002,2.715 1.095,5.151 2.872,6.931 1.781,1.779 4.219,2.873 6.934,2.874 2.714,-10e-4 5.15,-1.095 6.932,-2.874 1.778,-1.78 2.87,-4.216 2.87,-6.931 0,-2.715 -1.092,-5.152 -2.87,-6.936 -1.782,-1.775 -4.218,-2.866 -6.932,-2.868 -2.715,0.002 -5.153,1.093 -6.934,2.868"
         id="Fill-7"
         fill="#ffffff" />
      <path
         d="m 68.729,28.85 c 3.329,-1 5.758,-4.077 5.759,-7.732 -0.001,-4.461 -3.614,-8.073 -8.075,-8.074 H 52.505 v 27.683 h 4.613 V 29.192 h 6.428 l 6.96,11.535 h 5.382 z M 57.118,24.577 v -6.921 h 9.295 c 1.91,0.002 3.459,1.549 3.461,3.462 -0.002,1.908 -1.551,3.455 -3.461,3.459 z"
         id="Fill-8"
         fill="#ffffff" />
      <path
         d="m 49.234,15.989 c 0,1.875 -1.52,3.397 -3.395,3.397 -1.877,0 -3.398,-1.522 -3.398,-3.397 0,-1.876 1.521,-3.396 3.398,-3.396 1.875,0 3.395,1.52 3.395,3.396"
         id="Fill-9"
         fill="#ffffff" />
      <polyline
         id="Fill-10"
         fill="#ffffff"
         points="172.825 13.044 167.218 13.044 160.116 23.321 153.015 13.044 147.407 13.044 157.804 28.096 157.804 40.727 162.42 40.727 162.42 28.106 172.825 13.044" />
      <path
         d="m 178.395,12.481 c -1.878,0 -3.402,1.522 -3.402,3.401 0,1.876 1.524,3.399 3.402,3.399 1.876,0 3.399,-1.523 3.399,-3.399 0,-1.879 -1.523,-3.401 -3.399,-3.401 m 0,6.254 c -1.578,0 -2.856,-1.278 -2.856,-2.853 0,-1.579 1.278,-2.858 2.856,-2.858 1.575,0 2.855,1.279 2.855,2.858 0,1.575 -1.28,2.853 -2.855,2.853"
         id="Fill-11"
         fill="#ffffff" />
      <path
         d="m 179.921,15.134 c 0,-0.56 -0.451,-1.011 -1.01,-1.011 h -1.914 v 3.465 h 0.574 v -1.443 h 0.972 l 0.694,1.443 h 0.642 l -0.71,-1.477 c 0.434,-0.113 0.752,-0.507 0.752,-0.977 m -2.35,-0.434 h 1.34 c 0.24,0 0.432,0.194 0.433,0.434 -0.001,0.24 -0.193,0.433 -0.433,0.433 h -1.34 V 14.7"
         id="Fill-12"
         fill="#ffffff" />
    </g>
  </g>
  <metadata
     id="metadata8318">
    <rdf:RDF>
      <cc:Work
         rdf:about="">
        <dc:title>ORM_logo_box75(lg)_cmyk</dc:title>
      </cc:Work>
    </rdf:RDF>
  </metadata>
</svg>

<?xml version="1.0" encoding="UTF-8"?>
<svg width="195px" height="54px" viewBox="0 0 195 54" version="1.1" xmlns="http://www.w3.org/2000/svg" xmlns:xlink="http://www.w3.org/1999/xlink">
    <!-- Generator: Sketch 42 (36781) - http://www.bohemiancoding.com/sketch -->
    <title>ORM_logo_box75(lg)_cmyk</title>
    <desc>Created with Sketch.</desc>
    <defs></defs>
    <g id="Page-1" stroke="none" stroke-width="1" fill="none" fill-rule="evenodd">
        <g id="ORM_logo_box75(lg)_cmyk">
            <polygon id="Fill-1" fill="#B1B1B1" points="0.06 53.94 194.908 53.94 194.908 0 0.06 0"></polygon>
            <polyline id="Fill-3" fill="#FFFFFF" points="98.362 17.656 98.362 13.042 79.116 13.042 79.116 40.727 98.362 40.727 98.362 36.111 83.729 36.111 83.729 29.191 97.657 29.191 97.657 24.577 83.729 24.577 83.729 17.656 98.362 17.656"></polyline>
            <polyline id="Fill-4" fill="#FFFFFF" points="112.644 40.727 112.644 13.044 117.258 13.044 117.258 36.111 130.568 36.111 130.568 40.727 112.644 40.727"></polyline>
            <polyline id="Fill-5" fill="#FFFFFF" points="134.329 40.727 134.329 13.044 138.944 13.044 138.944 36.111 152.255 36.111 152.255 40.727 134.329 40.727"></polyline>
            <polygon id="Fill-6" fill="#FFFFFF" points="103.206 40.728 107.818 40.728 107.818 13.044 103.206 13.044"></polygon>
            <path d="M14.019,27.012 C14.021,19.047 20.474,12.595 28.439,12.593 C36.403,12.595 42.855,19.047 42.856,27.012 C42.855,34.976 36.403,41.429 28.439,41.431 C20.474,41.429 14.021,34.976 14.019,27.012 M21.505,20.076 C19.728,21.86 18.635,24.297 18.633,27.012 C18.635,29.727 19.728,32.163 21.505,33.943 C23.286,35.722 25.724,36.816 28.439,36.817 C31.153,36.816 33.589,35.722 35.371,33.943 C37.149,32.163 38.241,29.727 38.241,27.012 C38.241,24.297 37.149,21.86 35.371,20.076 C33.589,18.301 31.153,17.21 28.439,17.208 C25.724,17.21 23.286,18.301 21.505,20.076" id="Fill-7" fill="#FFFFFF"></path>
            <path d="M68.729,28.85 C72.058,27.85 74.487,24.773 74.488,21.118 C74.487,16.657 70.874,13.045 66.413,13.044 L52.505,13.044 L52.505,40.727 L57.118,40.727 L57.118,29.192 L63.546,29.192 L70.506,40.727 L75.888,40.727 L68.729,28.85 Z M57.118,24.577 L57.118,17.656 L66.413,17.656 C68.323,17.658 69.872,19.205 69.874,21.118 C69.872,23.026 68.323,24.573 66.413,24.577 L57.118,24.577 L57.118,24.577 Z" id="Fill-8" fill="#FFFFFF"></path>
            <path d="M49.234,15.989 C49.234,17.864 47.714,19.386 45.839,19.386 C43.962,19.386 42.441,17.864 42.441,15.989 C42.441,14.113 43.962,12.593 45.839,12.593 C47.714,12.593 49.234,14.113 49.234,15.989" id="Fill-9" fill="#FFFFFF"></path>
            <polyline id="Fill-10" fill="#FFFFFF" points="172.825 13.044 167.218 13.044 160.116 23.321 153.015 13.044 147.407 13.044 157.804 28.096 157.804 40.727 162.42 40.727 162.42 28.106 172.825 13.044"></polyline>
            <path d="M178.395,12.481 C176.517,12.481 174.993,14.003 174.993,15.882 C174.993,17.758 176.517,19.281 178.395,19.281 C180.271,19.281 181.794,17.758 181.794,15.882 C181.794,14.003 180.271,12.481 178.395,12.481 M178.395,18.735 C176.817,18.735 175.539,17.457 175.539,15.882 C175.539,14.303 176.817,13.024 178.395,13.024 C179.97,13.024 181.25,14.303 181.25,15.882 C181.25,17.457 179.97,18.735 178.395,18.735" id="Fill-11" fill="#FFFFFF"></path>
            <path d="M179.921,15.134 C179.921,14.574 179.47,14.123 178.911,14.123 L176.997,14.123 L176.997,17.588 L177.571,17.588 L177.571,16.145 L178.543,16.145 L179.237,17.588 L179.879,17.588 L179.169,16.111 C179.603,15.998 179.921,15.604 179.921,15.134 M177.571,14.7 L178.911,14.7 C179.151,14.7 179.343,14.894 179.344,15.134 C179.343,15.374 179.151,15.567 178.911,15.567 L177.571,15.567 L177.571,14.7" id="Fill-12" fill="#FFFFFF"></path>
        </g>
    </g>
</svg>
